X:1
T:Farewell Dear Rosanna
M:3/4
L:1/8
K:G
D-E| G2 D2D-E
M:4/4
| G2 A4B-A|
M:3/4
 G2 D2 E2| D4D-E| G2- D2D-E|
M:4/4
 G2 A4 BA|
M:3/4
 G2 D2 E2| D4A-B| d2 B2| A3/2 G/2|
M:4/4
 E2 G4A-B|
M:3/4
 c2 B2A-G| A4A-B| G2 D2D-E| G2 A4|B-A
M:3/4
| G2 D2 E2| D4||
